X:18830
T:Windmill
M:C
L:1/8
K:D Major
ABc|d2fd ceAc|dBGB AFDE|FBB2 Adfd|eAce afge|!
d2fd ceAc|dBGB AFDF|GFGB Adfa|gece d:|!
efg|eAA2 a3f|gAA2 dFAd|BdAB GAGF|EDEF GABc|!
dAA2 eAa2|fdce defd|cdef gfga|eAce d:|!


